<?xml version="1.0" encoding="UTF-8"?>
<map version="1.10" tiledversion="1.12.1" orientation="orthogonal" renderorder="right-down" width="20" height="15" tilewidth="16" tileheight="16" infinite="0" nextlayerid="4" nextobjectid="1">
 <editorsettings>
  <export target="../../../../ambush_area_katman2.csv" format="csv"/>
 </editorsettings>
 <tileset firstgid="1" source="plains.tsx"/>
 <tileset firstgid="73" source="../../../Programming/PythonGame/assets/plains.tsx"/>
 <layer id="2" name="Pavement" width="20" height="15">
  <data encoding="csv">
9,9,9,9,9,9,9,9,9,9,9,9,9,9,9,9,9,9,9,9,
9,9,9,9,9,9,9,9,9,9,9,9,9,9,9,9,9,9,9,9,
9,9,9,9,9,9,9,9,9,9,9,9,9,119,9,9,9,9,9,9,
9,9,9,9,9,9,9,9,9,9,9,9,9,9,9,9,9,9,9,9,
9,9,9,9,9,9,9,9,9,9,9,9,9,9,9,9,119,9,9,9,
9,9,9,9,9,9,9,9,9,9,9,9,9,9,9,9,9,9,9,9,
9,9,9,9,9,9,9,9,9,9,9,9,9,9,9,9,9,9,9,9,
9,9,9,9,9,9,9,9,9,9,9,9,9,9,9,9,9,9,9,9,
9,9,9,9,9,9,9,9,9,9,9,9,9,9,9,9,9,9,9,9,
9,9,9,9,9,9,9,9,9,9,9,9,9,9,9,9,9,9,9,9,
9,9,9,9,9,9,9,9,9,9,9,9,9,9,9,9,9,9,9,9,
9,9,9,9,9,9,9,9,9,9,9,9,9,9,9,9,9,9,9,9,
9,9,9,9,9,9,9,9,9,9,9,9,9,9,9,9,9,9,9,9,
9,9,9,9,9,9,9,9,9,9,9,9,9,9,9,9,9,9,9,9,
9,9,9,9,9,9,9,9,9,9,9,9,9,9,9,9,9,9,9,9
</data>
 </layer>
 <layer id="1" name="Desen Katmanı 1" width="20" height="15">
  <data encoding="csv">
49,49,49,49,49,49,49,49,49,49,49,49,49,49,49,49,49,49,49,49,
49,49,49,0,0,0,0,0,0,0,0,49,48,49,49,49,49,48,49,49,
49,49,49,0,49,49,49,49,49,49,49,49,49,49,49,49,49,49,49,49,
49,49,47,0,49,49,49,49,49,47,49,49,49,49,49,49,49,49,49,49,
49,49,49,0,49,49,49,49,49,49,48,47,49,49,49,49,49,49,49,49,
49,49,49,0,49,49,49,49,49,49,49,49,49,49,49,49,49,49,49,49,
49,0,0,0,0,0,0,0,0,0,0,0,0,0,0,0,0,0,0,3,
0,0,0,0,0,0,0,0,0,0,0,0,0,0,0,0,0,0,0,0,
0,0,0,0,0,0,0,0,0,0,0,0,0,0,0,0,0,0,0,0,
49,49,47,49,49,49,49,49,49,49,49,49,49,0,49,49,49,49,49,49,
49,49,49,49,49,49,48,47,49,49,49,49,49,0,49,49,49,49,49,49,
49,49,49,49,49,49,49,49,49,49,49,49,49,0,49,48,49,49,49,49,
49,49,49,49,49,49,49,49,47,49,48,49,49,0,49,49,49,47,49,49,
49,49,49,49,49,49,48,49,49,49,49,49,49,49,49,49,49,49,49,49,
49,49,49,49,49,49,49,49,49,49,49,49,49,49,49,49,49,49,49,49
</data>
 </layer>
 <layer id="3" name="Desen Katmanı 3" width="20" height="15">
  <data encoding="csv">
29,39,39,39,39,39,39,39,39,39,39,39,39,39,39,39,39,39,39,30,
34,0,0,2,3,3,3,3,3,3,3,4,0,0,0,0,0,0,0,32,
34,0,49,8,5,15,15,15,15,15,15,16,0,0,120,0,0,0,0,32,
34,119,49,8,10,0,0,0,0,0,0,0,0,119,0,0,119,0,0,32,
34,0,49,8,10,0,0,0,120,0,0,0,0,0,0,0,0,0,0,32,
34,0,0,8,10,0,0,0,0,0,0,0,0,0,0,0,0,0,0,38,
40,2,3,12,11,3,3,3,3,3,3,3,3,3,3,3,3,3,3,63,
3,12,0,0,0,0,0,0,0,0,0,0,0,0,0,0,0,0,0,0,
15,15,15,15,15,15,15,15,15,15,15,15,15,6,5,15,15,15,15,15,
28,0,0,0,0,0,0,0,0,0,0,0,68,8,10,0,0,0,0,26,
34,0,0,0,119,0,0,0,0,0,120,0,0,8,10,0,0,120,0,32,
34,0,0,0,0,0,120,0,0,0,0,0,0,8,10,0,0,0,0,32,
34,0,0,0,0,0,0,0,0,119,0,0,0,14,16,0,0,120,0,32,
34,0,0,0,0,0,0,0,0,0,0,0,0,0,0,0,0,0,0,32,
35,27,27,27,27,27,27,27,27,27,27,27,27,27,27,27,27,27,27,36
</data>
 </layer>
</map>
