<?xml version="1.0" encoding="UTF-8"?>
<map version="1.10" tiledversion="1.12.1" orientation="orthogonal" renderorder="right-down" width="20" height="15" tilewidth="16" tileheight="16" infinite="0" nextlayerid="4" nextobjectid="1">
 <tileset firstgid="1" source="interior_tiles.tsx"/>
 <layer id="1" name="Desen Katmanı 1" width="20" height="15">
  <data encoding="csv">
4,4,4,4,4,4,4,4,4,4,289,289,4,4,4,4,4,4,4,4,
52,52,52,52,52,52,52,52,52,52,289,289,52,52,52,52,52,52,52,52,
289,289,289,289,289,289,289,289,289,290,289,289,289,290,289,289,289,290,289,289,
289,289,289,289,289,289,290,289,289,289,289,289,289,289,289,290,289,290,289,289,
289,289,289,289,289,290,289,289,290,289,290,289,289,289,289,289,289,289,289,289,
289,289,289,290,289,289,289,289,289,289,290,289,289,289,289,290,289,289,289,289,
289,289,289,289,289,289,289,290,289,289,289,289,289,289,289,289,289,289,290,289,
289,290,289,289,289,289,66,66,66,66,66,66,66,66,66,66,66,289,289,289,
289,289,289,290,289,289,289,289,289,290,289,289,289,289,289,289,289,289,289,289,
289,289,289,289,289,290,289,289,289,289,289,290,289,290,289,289,290,289,289,289,
290,289,289,289,289,289,289,289,289,289,289,289,289,289,289,289,289,289,289,290,
289,289,289,289,290,289,289,289,289,289,290,289,289,289,289,290,289,289,289,289,
289,289,289,289,290,289,290,289,289,289,289,289,289,289,289,289,289,289,289,289,
289,290,289,289,289,290,289,289,289,289,289,290,290,289,289,289,289,290,289,289,
289,289,289,289,290,289,289,289,289,289,289,289,289,289,289,289,289,289,290,289
</data>
 </layer>
 <layer id="2" name="Desen Katmanı 2" width="20" height="15">
  <data encoding="csv">
0,0,0,0,0,0,0,0,0,196,218,218,194,0,0,0,0,0,0,0,
0,0,0,0,0,0,0,0,0,244,0,0,242,0,0,0,0,0,0,0,
629,0,0,0,0,0,0,0,0,0,0,0,0,0,0,0,0,0,0,625,
629,0,0,0,0,0,0,0,0,0,0,0,0,0,0,0,0,0,0,625,
629,0,0,0,0,0,0,0,0,0,0,0,0,0,0,0,0,0,0,625,
629,0,0,0,0,0,0,0,0,0,0,0,0,0,0,0,0,0,0,625,
629,0,0,17,18,18,18,18,18,18,18,18,18,18,18,18,18,18,18,625,
629,0,0,65,66,66,66,66,66,66,66,66,66,66,66,66,66,67,0,0,
629,0,0,65,66,66,66,66,66,66,66,66,66,66,66,66,66,67,0,0,
629,0,0,0,0,0,0,0,0,0,0,0,0,0,0,0,0,0,0,625,
629,0,0,0,0,0,0,0,0,0,0,0,0,0,0,0,0,0,0,625,
629,0,0,0,0,0,0,0,0,0,0,0,0,0,0,0,0,0,0,625,
629,0,0,0,0,0,0,0,0,0,0,0,0,0,0,0,0,0,0,625,
629,0,0,0,0,0,0,0,0,0,0,0,0,0,0,0,0,0,0,625,
580,531,531,531,531,531,531,531,531,531,531,531,531,531,531,531,531,531,531,578
</data>
 </layer>
 <layer id="3" name="Desen Katmanı 3" width="20" height="15">
  <data encoding="csv">
0,0,0,0,0,0,0,0,0,0,0,0,0,0,0,0,0,0,0,0,
0,0,0,0,0,0,0,0,0,0,0,0,0,0,0,0,0,0,0,0,
0,0,0,0,0,0,0,734,0,0,0,0,0,0,0,0,0,0,21,0,
0,160,249,160,0,0,0,0,0,0,0,0,0,0,0,0,0,450,0,0,
0,160,297,160,0,0,0,0,0,499,0,0,0,0,0,0,0,498,0,0,
0,0,0,0,0,0,0,0,0,0,0,0,0,0,0,0,0,0,0,0,
17,18,18,18,18,0,0,0,0,0,0,0,0,0,0,0,0,0,0,19,
65,66,66,66,66,0,0,0,0,0,0,0,0,0,0,0,66,66,66,67,
65,66,66,66,66,66,66,66,66,66,66,66,66,66,66,66,66,66,66,67,
113,114,114,114,114,114,114,114,114,114,114,114,114,114,114,114,114,114,114,115,
0,0,0,0,0,0,0,0,0,499,0,0,0,0,0,0,0,0,0,0,
0,0,0,0,0,0,0,0,0,0,0,0,0,0,0,0,0,644,0,0,
0,0,0,0,0,0,0,0,0,0,0,0,0,0,0,0,0,642,0,0,
0,164,0,0,644,0,0,0,0,0,0,0,0,738,0,0,0,690,0,0,
0,0,0,0,0,0,0,0,0,0,0,0,0,0,0,0,0,0,0,0
</data>
 </layer>
</map>
