<?xml version="1.0" encoding="UTF-8"?>
<map version="1.10" tiledversion="1.12.1" orientation="orthogonal" renderorder="right-down" width="20" height="15" tilewidth="16" tileheight="16" infinite="0" nextlayerid="6" nextobjectid="1">
 <tileset firstgid="1" source="interior_tiles.tsx"/>
 <layer id="1" name="Desen Katmanı 1" width="20" height="15">
  <data encoding="csv">
4,4,4,4,4,4,4,4,4,4,289,289,4,4,4,4,4,4,4,4,
52,52,52,52,52,52,52,52,52,52,289,289,52,52,52,52,52,52,52,52,
289,289,289,289,289,289,289,289,289,290,289,289,289,290,289,289,289,290,289,289,
289,289,289,289,289,289,290,289,289,289,289,289,289,289,289,290,289,290,289,289,
289,289,289,289,289,290,289,289,290,289,290,289,289,289,289,289,289,289,289,289,
289,289,289,290,289,289,289,289,289,289,290,289,289,289,289,290,289,289,289,289,
289,289,289,289,289,289,289,290,289,289,289,289,289,289,289,289,289,289,290,289,
289,290,289,289,289,289,289,289,289,66,66,66,66,66,66,66,66,289,289,289,
289,289,289,290,289,289,289,289,289,290,289,289,289,289,289,289,289,289,289,289,
289,289,289,289,289,290,289,289,289,289,289,290,289,290,289,289,290,289,289,289,
290,289,289,289,289,289,289,289,289,289,289,289,289,289,289,289,289,289,289,290,
289,289,289,289,290,289,289,289,289,289,290,289,289,289,289,290,289,289,289,289,
289,289,289,289,290,289,290,289,289,289,289,289,289,289,289,289,289,289,289,289,
289,290,289,289,289,290,289,289,289,289,289,290,290,289,289,289,289,290,289,289,
289,289,289,289,290,289,289,289,289,289,289,289,289,289,289,289,289,289,290,289
</data>
 </layer>
 <layer id="2" name="Desen Katmanı 2" width="20" height="15">
  <data encoding="csv">
0,0,0,0,0,0,0,0,0,196,218,218,194,0,0,0,0,0,0,655,
0,0,0,0,0,0,552,0,0,244,0,0,242,0,0,0,457,458,0,703,
629,0,734,734,0,0,600,0,0,547,0,0,0,0,0,0,505,506,0,625,
629,0,0,0,0,0,0,0,0,0,0,0,0,0,0,0,0,0,0,625,
629,0,0,0,0,0,0,0,0,0,0,0,0,0,0,0,0,0,0,625,
629,0,0,0,0,0,0,533,0,0,0,0,0,0,0,0,0,0,0,625,
629,0,0,17,18,18,18,18,18,18,18,18,18,18,18,18,18,19,0,625,
629,547,0,65,66,66,66,66,66,66,66,66,66,66,66,66,66,67,0,625,
629,0,0,65,66,66,66,66,66,66,66,66,66,66,66,66,66,67,0,625,
629,0,0,65,66,66,66,66,66,66,66,66,66,66,66,66,66,67,0,625,
629,0,0,113,114,114,114,114,114,114,114,114,114,114,114,114,114,115,0,625,
629,0,0,0,0,0,0,0,0,0,451,0,0,0,0,0,0,0,0,625,
629,0,0,0,0,0,0,0,0,0,0,0,0,0,0,0,0,631,641,625,
629,0,0,737,0,0,0,0,0,0,0,0,0,0,0,0,0,0,689,625,
580,531,531,531,531,531,531,531,531,531,531,531,531,531,531,531,531,531,531,578
</data>
 </layer>
 <layer id="5" name="Desen Katmanı 3" width="20" height="15">
  <data encoding="csv">
0,0,0,0,0,0,0,0,0,0,0,0,0,0,0,0,0,0,0,0,
0,681,0,0,681,0,0,0,0,0,0,0,0,393,394,0,0,0,0,0,
0,729,0,0,729,0,0,639,640,0,0,0,0,441,442,0,0,0,0,0,
0,0,0,0,0,0,0,0,0,0,0,0,0,0,0,0,0,0,0,0,
0,0,0,0,0,0,0,0,0,0,0,0,0,0,0,0,0,0,0,0,
0,0,0,0,0,0,0,0,0,0,0,0,0,0,0,0,0,0,0,0,
0,0,0,0,0,0,0,0,0,0,0,0,0,0,0,0,0,0,0,0,
0,0,0,0,0,0,0,0,0,0,0,0,0,0,0,0,0,0,0,0,
0,0,0,0,0,0,0,0,0,0,0,0,0,0,0,0,0,0,0,0,
0,0,0,0,0,0,0,0,0,0,0,0,0,0,0,0,0,0,0,0,
0,0,0,0,0,0,0,0,0,0,0,0,0,0,0,0,0,0,0,0,
0,0,0,0,0,0,0,0,0,0,0,0,0,0,0,0,0,0,0,0,
0,0,0,0,0,0,0,0,0,0,0,0,0,0,0,0,0,0,0,0,
0,0,0,0,0,0,0,0,0,0,0,0,0,0,0,0,0,0,0,0,
0,0,0,0,0,0,0,0,0,0,0,0,0,0,0,0,0,0,0,0
</data>
 </layer>
</map>
