<?xml version="1.0" encoding="UTF-8"?>
<map version="1.10" tiledversion="1.12.1" orientation="orthogonal" renderorder="right-down" width="20" height="15" tilewidth="16" tileheight="16" infinite="0" nextlayerid="4" nextobjectid="1">
 <tileset firstgid="1" source="plains.tsx"/>
 <layer id="1" name="Desen Katmanı 1" width="20" height="15">
  <data encoding="csv">
9,9,9,9,9,9,9,9,9,9,9,9,9,9,9,9,9,9,9,9,
9,9,9,9,9,9,9,9,9,9,9,9,9,9,9,9,9,9,9,9,
9,9,9,9,9,9,9,9,9,9,9,9,9,9,9,9,9,9,9,9,
9,9,9,9,9,9,9,9,9,9,9,9,9,9,9,9,9,9,9,9,
9,9,9,9,9,9,9,9,9,9,9,9,9,9,9,9,9,9,9,9,
9,9,9,9,9,9,9,9,9,9,9,9,9,9,9,9,9,9,9,9,
9,9,9,9,9,9,9,9,9,9,9,9,9,9,9,9,9,9,9,9,
9,9,9,9,9,9,9,9,9,9,9,9,9,9,9,9,9,9,9,9,
9,9,9,9,9,9,9,9,9,9,9,9,9,9,9,9,9,9,9,9,
9,9,9,9,9,9,9,9,9,9,9,9,9,9,9,9,9,9,9,9,
9,9,9,9,9,9,9,9,9,9,9,9,9,9,9,9,9,9,9,9,
9,9,9,9,9,9,9,9,9,9,9,9,9,9,9,9,9,9,9,9,
9,9,9,9,9,9,9,9,9,9,9,9,9,9,9,9,9,9,9,9,
9,9,9,9,9,9,9,9,9,9,9,9,9,9,9,9,9,9,9,9,
9,9,9,9,9,9,9,9,9,9,9,9,9,9,9,9,9,9,9,9
</data>
 </layer>
 <layer id="2" name="Desen Katmanı 2" width="20" height="15">
  <data encoding="csv">
49,49,49,49,49,49,49,49,49,49,49,49,49,49,49,49,49,49,49,49,
49,49,49,49,49,49,49,49,49,49,49,49,49,49,49,49,49,49,49,49,
49,49,49,49,49,49,49,49,49,49,49,49,49,49,49,49,49,49,49,49,
49,49,49,49,49,49,49,49,49,49,49,49,49,49,49,49,49,49,49,49,
49,49,49,49,49,49,49,49,49,49,49,49,49,49,49,49,49,49,49,49,
49,49,49,49,49,49,49,49,49,49,49,49,49,49,49,49,49,49,49,49,
49,49,49,49,49,49,49,49,49,49,49,49,49,49,49,49,49,49,49,49,
49,49,49,49,49,49,49,49,49,49,49,49,49,49,49,49,49,49,49,49,
49,49,49,49,49,49,49,49,49,49,49,49,49,49,49,49,49,49,49,49,
49,49,49,49,49,49,49,49,49,49,49,49,49,49,49,49,49,49,49,49,
49,49,49,49,49,49,49,49,49,49,49,49,49,49,49,49,49,49,49,49,
49,49,49,49,49,49,49,49,49,49,49,49,49,49,49,49,49,49,49,49,
49,49,49,49,49,49,49,49,49,49,49,49,49,49,49,49,49,49,49,49,
49,49,49,49,49,49,49,49,49,49,49,49,49,49,49,49,49,49,49,49,
49,49,49,49,49,49,49,49,49,49,49,49,49,49,49,49,49,49,49,49
</data>
 </layer>
 <layer id="3" name="Desen Katmanı 3" width="20" height="15">
  <data encoding="csv">
34,44,45,45,45,45,45,46,8,10,38,39,39,39,39,39,39,39,39,30,
34,0,48,0,0,48,0,0,8,11,3,3,3,3,3,3,3,3,4,32,
34,0,0,0,0,0,0,0,8,9,9,9,9,9,9,9,9,9,10,32,
34,0,0,0,48,0,0,0,8,9,9,9,9,9,9,9,9,9,10,32,
34,0,0,0,0,0,48,0,8,9,9,9,9,9,5,15,6,9,10,32,
34,49,49,0,0,47,0,0,8,9,9,9,9,5,16,0,8,9,10,32,
34,49,0,0,0,0,0,0,8,9,9,9,9,10,47,0,8,9,10,32,
34,49,48,26,27,28,0,0,8,9,9,9,5,16,0,0,8,9,10,32,
34,49,0,32,33,34,48,0,8,9,9,9,10,0,0,68,14,6,10,32,
34,49,0,32,33,34,0,0,8,9,9,9,11,4,0,0,0,8,10,32,
34,0,0,32,29,40,0,0,8,9,9,9,9,10,0,48,0,8,10,32,
34,0,0,32,34,0,47,0,8,9,9,9,9,10,0,0,0,8,10,32,
35,27,27,36,34,0,0,48,8,9,9,9,9,11,3,3,3,12,10,32,
33,33,33,33,34,43,43,0,8,5,15,15,15,15,15,15,15,15,16,32,
33,33,33,33,34,0,0,43,8,10,51,70,70,70,53,26,27,27,27,36
</data>
 </layer>
</map>
