<?xml version="1.0" encoding="UTF-8"?>
<map version="1.10" tiledversion="1.12.1" orientation="orthogonal" renderorder="right-down" width="20" height="15" tilewidth="16" tileheight="16" infinite="0" nextlayerid="4" nextobjectid="1">
 <tileset firstgid="1" source="plains.tsx"/>
 <layer id="1" name="Desen Katmanı 1" width="20" height="15">
  <data encoding="csv">
9,9,9,9,9,9,9,9,9,9,9,9,9,9,9,9,9,9,9,9,
9,9,9,9,9,9,9,9,9,9,9,9,9,9,9,9,9,9,9,9,
9,9,9,9,9,9,9,9,9,9,9,9,9,9,9,9,9,9,9,9,
9,9,9,9,9,9,9,9,9,9,9,9,9,9,9,9,9,9,9,9,
9,9,9,9,9,9,9,9,9,9,9,9,9,9,9,9,9,9,9,9,
9,9,9,9,9,9,9,9,9,9,9,9,9,9,9,9,9,9,9,9,
9,9,9,9,9,9,9,9,9,9,9,9,9,9,9,9,9,9,9,9,
9,9,9,9,9,9,9,9,9,9,9,9,9,9,9,9,9,9,9,9,
9,9,9,9,9,9,9,9,9,9,9,9,9,9,9,9,9,9,9,9,
9,9,9,9,9,9,9,9,9,9,9,9,9,9,9,9,9,9,9,9,
9,9,9,9,9,9,9,9,9,9,9,9,9,9,9,9,9,9,9,9,
9,9,9,9,9,9,9,9,9,9,9,9,9,9,9,9,9,9,9,9,
9,9,9,9,9,9,9,9,9,9,9,9,9,9,9,9,9,9,9,9,
9,9,9,9,9,9,9,9,9,9,9,9,9,9,9,9,9,9,9,9,
9,9,9,9,9,9,9,9,9,9,9,9,9,9,9,9,9,9,9,9
</data>
 </layer>
 <layer id="2" name="Desen Katmanı 2" width="20" height="15">
  <data encoding="csv">
49,49,49,49,49,49,49,49,0,0,0,0,0,0,0,0,0,0,0,0,
49,49,49,49,49,49,49,49,0,0,0,0,0,0,0,0,0,0,0,0,
49,49,49,49,49,49,49,49,0,0,0,0,0,0,0,0,0,0,0,0,
49,49,49,49,49,49,49,49,0,0,0,0,0,0,0,0,0,0,0,0,
49,49,49,49,49,49,49,49,0,0,0,0,0,0,0,0,0,0,0,0,
49,49,49,49,49,49,49,0,0,0,0,0,5,15,15,15,15,15,15,15,
0,0,0,0,0,0,0,0,0,0,0,5,16,49,49,49,49,49,49,49,
0,0,0,0,0,0,0,0,0,0,5,16,49,49,49,49,49,49,49,49,
49,49,49,49,49,49,49,49,49,8,10,49,49,49,49,49,49,49,49,49,
49,49,49,49,49,49,49,49,49,8,10,49,49,49,49,49,49,49,49,49,
49,49,49,49,49,49,49,49,49,8,10,49,49,49,49,49,49,49,49,49,
49,49,49,49,49,49,49,49,49,8,10,49,49,49,49,49,49,49,49,49,
49,49,49,49,49,49,49,49,49,8,10,49,49,49,49,49,49,49,49,49,
49,49,49,49,49,49,49,49,49,8,10,49,49,49,49,49,49,49,49,49,
49,49,49,49,49,49,49,49,49,8,10,49,49,49,49,49,49,49,49,49
</data>
 </layer>
 <layer id="3" name="Desen Katmanı 3" width="20" height="15">
  <data encoding="csv">
29,39,39,39,39,39,39,39,39,39,39,39,39,39,39,39,39,39,39,30,
34,0,48,0,47,0,0,0,8,0,0,0,0,0,0,0,0,0,0,32,
34,0,0,0,0,0,0,0,8,0,0,0,0,0,0,0,0,0,0,32,
34,0,0,47,0,48,0,0,8,0,0,0,0,0,68,0,0,0,0,32,
40,0,0,0,0,0,0,0,8,0,0,0,0,0,0,0,0,0,0,32,
43,0,0,0,0,0,0,2,12,0,0,0,0,0,0,0,0,0,0,32,
3,3,3,3,3,3,3,12,9,0,0,0,0,0,48,0,0,0,48,32,
15,15,15,15,15,15,15,15,15,6,0,0,0,0,0,0,43,0,0,32,
43,0,0,0,0,0,0,0,0,0,0,0,0,43,0,0,0,0,0,32,
28,0,0,0,0,47,48,0,0,0,0,0,43,0,0,0,0,0,0,32,
34,0,43,0,0,47,0,0,0,0,0,0,0,0,0,0,48,0,0,32,
34,0,0,0,0,0,0,0,0,0,0,0,0,0,0,0,0,0,0,32,
34,0,0,0,43,0,48,0,0,0,0,0,47,0,0,43,0,0,0,32,
34,0,48,0,0,0,0,0,0,0,0,0,0,0,0,0,0,0,47,32,
35,27,27,27,27,27,27,28,43,0,0,43,26,27,27,27,27,27,27,36
</data>
 </layer>
</map>
