<?xml version="1.0" encoding="UTF-8"?>
<map version="1.10" tiledversion="1.12.1" orientation="orthogonal" renderorder="right-down" width="20" height="15" tilewidth="16" tileheight="16" infinite="0" nextlayerid="5" nextobjectid="1">
 <tileset firstgid="1" source="interior_tiles.tsx"/>
 <layer id="1" name="Desen Katmanı 1" width="20" height="15">
  <data encoding="csv">
97,97,97,97,97,97,97,97,97,97,97,97,97,97,97,97,97,97,97,97,
145,145,145,145,145,145,145,145,145,145,145,145,145,145,145,145,145,145,145,145,
289,289,289,289,289,289,289,289,289,290,289,289,289,290,289,289,289,290,289,289,
289,289,289,289,289,289,290,289,289,289,289,289,289,289,289,290,289,290,289,289,
289,289,289,289,289,290,289,289,290,289,290,289,289,289,289,289,289,289,289,289,
289,289,289,290,289,289,289,289,289,289,290,289,289,289,289,290,289,289,289,289,
289,289,289,289,289,289,289,289,289,289,289,289,289,289,289,289,289,289,290,289,
289,290,289,289,289,289,289,289,289,289,289,289,289,289,289,289,289,289,289,289,
289,289,289,290,289,289,289,289,289,290,289,289,289,289,289,289,289,289,289,289,
289,289,289,289,289,290,289,289,289,289,289,290,289,290,289,289,290,289,289,289,
290,289,289,289,289,289,289,289,289,289,289,289,289,289,289,289,289,289,289,290,
289,289,289,289,290,289,289,289,289,289,290,289,289,289,289,290,289,289,289,289,
289,289,289,289,290,289,290,289,289,289,289,289,289,289,289,289,289,289,289,289,
289,290,289,289,289,290,289,289,289,289,289,290,290,289,289,289,289,290,289,289,
289,289,289,289,290,289,289,289,289,289,289,289,289,289,289,289,289,289,290,289
</data>
 </layer>
 <layer id="3" name="Desen Katmanı 3" width="20" height="15">
  <data encoding="csv">
0,0,0,0,0,0,0,0,655,0,15,16,555,556,0,0,0,0,0,0,
0,0,0,0,0,0,0,0,703,0,63,64,603,604,22,23,0,459,460,0,
0,0,0,0,0,0,0,0,0,0,0,0,0,0,70,71,0,507,508,0,
0,0,0,0,0,0,0,0,0,0,0,0,0,0,0,0,0,0,0,0,
0,0,0,0,0,0,0,0,0,0,0,0,0,0,0,0,0,0,0,0,
0,0,0,0,0,0,0,0,0,0,0,0,0,0,0,0,0,0,0,0,
161,162,162,162,162,162,162,162,162,162,162,162,162,162,162,163,0,0,0,0,
209,210,210,210,210,210,210,210,210,210,210,210,210,210,210,211,0,0,0,0,
209,210,210,210,210,210,210,210,210,210,210,210,210,210,210,211,0,0,0,0,
257,258,258,258,258,258,258,258,258,258,258,258,258,258,258,259,0,0,0,0,
0,0,738,0,0,0,0,0,0,0,0,0,0,0,0,0,0,0,0,0,
0,0,0,0,0,0,0,0,0,0,0,0,0,0,0,0,0,0,0,0,
0,0,0,0,0,0,0,0,0,0,0,0,0,0,0,0,0,0,0,0,
0,0,0,0,0,738,0,0,0,0,0,0,0,0,0,0,0,0,0,0,
0,0,0,0,0,0,0,0,0,0,0,0,0,0,0,0,0,0,0,0
</data>
 </layer>
 <layer id="2" name="Desen Katmanı 2" width="20" height="15">
  <data encoding="csv">
0,0,0,0,0,0,494,0,0,0,109,110,0,0,0,0,0,0,0,0,
0,0,0,688,0,0,542,0,0,0,157,158,0,0,0,0,0,0,0,0,
629,0,0,736,0,0,0,0,0,0,0,0,0,0,0,0,0,0,0,625,
629,0,0,737,0,0,0,0,0,0,0,0,0,0,0,0,0,0,545,625,
629,0,0,0,0,0,0,0,0,0,0,0,0,0,0,0,451,0,593,625,
629,0,0,0,0,0,0,0,0,0,0,0,0,0,0,205,206,207,0,625,
629,0,0,0,0,0,0,0,0,0,0,0,0,352,352,253,254,255,0,625,
0,0,0,0,0,0,0,0,0,0,0,0,0,639,640,253,254,255,400,625,
0,0,0,0,0,0,0,0,0,0,0,0,0,448,448,253,254,255,0,625,
629,0,0,0,0,0,0,0,0,0,0,0,0,0,0,301,302,303,0,625,
629,0,0,0,0,0,0,0,0,0,0,0,0,0,0,0,451,0,0,625,
629,0,0,0,0,0,0,0,0,0,0,0,0,0,0,0,0,0,0,625,
629,0,0,0,0,0,0,0,0,0,0,0,0,0,0,0,644,0,641,625,
629,0,0,0,0,0,0,0,0,0,0,0,0,0,0,0,0,0,689,625,
580,531,531,531,531,531,531,531,531,0,0,531,531,531,531,531,531,531,531,578
</data>
 </layer>
 <layer id="4" name="Desen Katmanı 4" width="20" height="15">
  <data encoding="csv">
0,0,0,0,0,0,0,0,0,0,0,0,0,0,0,0,0,0,0,0,
0,0,0,0,0,0,0,0,0,0,0,0,0,0,0,0,0,0,0,0,
0,0,0,0,0,0,0,0,0,0,0,0,0,0,0,0,0,0,0,0,
0,0,0,0,0,0,0,0,0,0,0,0,0,0,0,0,0,0,0,0,
0,0,0,0,0,0,0,0,0,0,0,0,0,0,0,0,0,0,0,0,
0,0,0,0,0,0,0,0,0,0,0,0,0,0,0,0,0,0,0,0,
0,0,0,0,0,0,0,0,0,0,0,0,0,0,0,0,118,0,0,0,
0,0,0,0,0,0,0,0,0,0,0,0,0,0,0,0,166,0,0,0,
0,0,0,0,0,0,0,0,0,0,0,0,0,0,0,0,165,0,0,0,
0,0,0,0,0,0,0,0,0,0,0,0,0,0,0,0,0,0,0,0,
0,0,0,0,0,0,0,0,0,0,0,0,0,0,0,0,0,0,0,0,
0,0,0,0,0,0,0,0,0,0,0,0,0,0,0,0,0,0,0,0,
0,0,0,0,0,0,0,0,0,0,0,0,0,0,0,0,0,0,0,0,
0,0,0,0,0,0,0,0,0,0,0,0,0,0,0,0,0,0,0,0,
0,0,0,0,0,0,0,0,0,0,0,0,0,0,0,0,0,0,0,0
</data>
 </layer>
</map>
