<?xml version="1.0" encoding="UTF-8"?>
<map version="1.10" tiledversion="1.12.1" orientation="orthogonal" renderorder="right-down" width="20" height="15" tilewidth="16" tileheight="16" infinite="0" nextlayerid="4" nextobjectid="1">
 <tileset firstgid="1" source="interior_tiles.tsx"/>
 <layer id="1" name="Desen Katmanı 1" width="20" height="15">
  <data encoding="csv">
97,97,97,97,97,97,97,97,97,97,97,97,97,97,97,97,97,97,97,97,
145,145,145,145,145,145,145,145,145,145,145,145,145,145,145,145,145,145,145,145,
289,289,289,289,289,289,289,289,289,290,289,289,289,290,289,289,289,290,289,289,
289,289,289,289,289,289,290,289,289,289,289,289,289,289,289,290,289,290,289,289,
289,289,289,289,289,290,289,289,290,289,290,289,289,289,289,289,289,289,289,289,
289,289,289,290,289,289,289,289,289,289,290,289,289,289,289,290,289,289,289,289,
289,289,289,289,289,289,289,289,289,289,289,289,289,289,289,289,289,289,290,289,
289,290,289,289,289,289,289,289,289,289,289,289,289,289,289,289,289,289,289,289,
289,289,289,290,289,289,289,289,289,290,289,289,289,289,289,289,289,289,289,289,
289,289,289,289,289,290,289,289,289,289,289,290,289,290,289,289,290,289,289,289,
290,289,289,289,289,289,289,289,289,289,289,289,289,289,289,289,289,289,289,290,
289,289,289,289,290,289,289,289,289,289,290,289,289,289,289,290,289,289,289,289,
289,289,289,289,290,289,290,289,289,289,289,289,289,289,289,289,289,289,289,289,
289,290,289,289,289,290,289,289,289,289,289,290,290,289,289,289,289,290,289,289,
289,289,289,289,290,289,289,289,289,289,289,289,289,289,289,289,289,289,290,289
</data>
 </layer>
 <layer id="3" name="Desen Katmanı 3" width="20" height="15">
  <data encoding="csv">
0,0,0,0,0,0,0,0,0,0,0,0,0,0,0,0,0,0,0,0,
0,0,0,0,0,0,0,0,0,0,0,0,0,0,0,0,0,0,0,0,
0,0,0,0,0,0,0,0,0,0,0,0,0,0,0,0,0,0,0,0,
0,0,0,0,0,0,0,0,0,352,0,0,0,0,0,0,0,0,0,0,
0,0,0,0,0,0,0,0,0,0,0,0,0,0,0,0,0,0,0,0,
0,0,0,0,0,0,0,0,0,0,0,0,0,0,0,0,0,0,0,0,
0,0,0,0,0,0,0,0,0,0,0,0,0,0,0,0,0,0,0,0,
0,0,0,0,0,0,0,0,0,0,0,0,0,0,0,0,0,0,0,0,
0,0,0,0,0,0,0,0,0,0,0,0,0,0,0,0,0,0,0,0,
0,0,0,0,0,0,0,0,0,0,0,0,0,0,0,0,0,0,0,0,
0,0,0,0,0,0,0,0,0,0,0,0,0,0,0,0,0,0,0,0,
0,0,0,0,0,0,0,0,0,0,0,0,0,0,0,0,0,0,0,0,
0,0,0,0,0,0,0,0,0,0,0,0,0,0,0,0,0,0,0,0,
0,0,0,0,0,0,0,0,0,0,0,0,0,0,0,0,0,0,0,0,
0,0,0,0,0,0,0,0,0,0,0,0,0,0,0,0,0,0,0,0
</data>
 </layer>
 <layer id="2" name="Desen Katmanı 2" width="20" height="15">
  <data encoding="csv">
0,0,0,0,0,0,0,0,0,492,653,0,0,0,0,0,0,0,0,0,
0,0,0,0,0,0,0,0,0,540,701,0,0,0,0,69,0,0,595,0,
629,0,734,0,0,0,0,0,738,0,0,0,0,0,0,117,21,499,643,625,
629,0,0,0,0,0,0,205,206,206,206,207,0,0,0,0,0,0,0,625,
629,0,639,640,0,639,640,253,254,254,254,255,639,640,0,639,640,0,0,625,
629,0,0,0,0,0,0,301,302,302,302,303,0,0,0,0,0,0,0,625,
629,0,0,0,0,0,0,0,0,0,0,0,0,0,0,0,0,0,0,625,
0,0,0,0,0,0,0,0,0,0,0,0,0,0,0,0,0,0,0,625,
0,0,0,0,0,0,0,0,0,0,0,0,0,0,0,0,0,0,0,625,
629,0,0,0,0,0,0,0,0,0,0,0,0,0,0,0,0,0,0,625,
629,0,0,0,0,0,0,0,0,0,0,0,0,0,0,0,0,0,738,625,
629,0,0,448,448,0,448,448,0,448,448,0,448,448,0,448,448,0,0,625,
629,0,0,0,0,0,0,0,0,0,0,0,0,0,0,0,0,0,0,625,
629,644,0,448,448,0,448,448,0,448,448,0,448,448,0,448,448,0,644,625,
580,531,531,531,531,531,531,531,531,531,531,531,531,531,531,531,531,531,531,578
</data>
 </layer>
</map>
