<?xml version="1.0" encoding="UTF-8"?>
<map version="1.10" tiledversion="1.12.1" orientation="orthogonal" renderorder="right-down" width="20" height="15" tilewidth="16" tileheight="16" infinite="0" nextlayerid="3" nextobjectid="1">
 <tileset firstgid="1" source="interior_tiles.tsx"/>
 <layer id="1" name="Desen Katmanı 1" width="20" height="15">
  <data encoding="csv">
100,100,100,100,100,100,100,100,100,289,289,100,100,100,100,100,100,100,100,100,
148,148,148,148,148,148,148,148,148,289,289,148,148,148,148,148,148,148,148,148,
289,289,289,289,289,289,289,289,289,290,289,289,289,290,289,289,289,290,289,289,
289,289,289,289,289,289,290,289,289,289,289,289,289,289,289,290,289,290,289,289,
289,289,289,289,289,290,289,289,290,289,290,289,289,289,289,289,289,289,289,289,
289,289,289,290,289,289,289,289,289,289,290,289,289,289,289,290,289,289,289,289,
289,289,289,289,289,289,289,289,289,289,289,289,289,289,289,289,289,289,290,289,
289,290,289,289,289,289,289,289,289,289,289,289,289,289,289,289,289,289,289,289,
289,289,289,290,289,289,289,289,289,290,289,289,289,289,289,289,289,289,289,289,
289,289,289,289,289,290,289,289,289,289,289,290,289,290,289,289,290,289,289,289,
290,289,289,289,289,289,289,289,289,289,289,289,289,289,289,289,289,289,289,290,
289,289,289,289,290,289,289,289,289,289,290,289,289,289,289,290,289,289,289,289,
289,289,289,289,290,289,290,289,289,289,289,289,289,289,289,289,289,289,289,289,
289,290,289,289,289,290,289,289,289,289,289,290,290,289,289,289,289,290,289,289,
289,289,289,289,290,289,289,289,289,289,289,289,289,289,289,289,289,289,290,289
</data>
 </layer>
 <layer id="2" name="Desen Katmanı 2" width="20" height="15">
  <data encoding="csv">
0,0,0,0,173,0,0,656,0,218,218,0,0,0,0,0,0,0,0,0,
0,0,0,364,365,366,0,704,0,0,0,0,0,0,69,0,22,23,0,0,
629,164,164,412,413,414,0,0,0,0,0,0,68,21,117,0,70,71,0,625,
629,0,0,0,0,0,0,0,0,0,0,0,0,0,0,0,0,0,0,625,
629,644,0,164,0,0,0,738,0,0,0,0,0,0,0,0,0,0,0,625,
629,0,0,0,0,0,0,0,0,0,0,0,0,0,0,0,22,23,0,625,
629,0,0,0,0,0,738,0,0,0,0,0,0,0,0,0,70,71,0,625,
629,0,0,0,0,0,0,0,0,0,0,254,254,254,0,0,0,0,0,0,
629,0,0,0,0,0,0,0,0,0,0,254,254,738,0,0,0,0,0,0,
629,0,22,23,0,0,0,0,0,0,0,0,0,0,0,0,0,0,0,625,
629,0,70,71,0,0,0,0,0,0,0,0,0,0,0,164,0,22,23,625,
629,0,0,0,164,533,0,738,0,0,0,0,0,0,0,0,0,70,71,625,
629,0,0,0,0,22,23,0,0,0,0,0,0,0,0,0,0,367,0,625,
629,0,738,0,0,70,71,0,0,0,0,0,0,0,738,0,644,0,0,625,
580,531,531,531,531,531,531,531,531,0,0,531,531,531,531,531,531,531,531,578
</data>
 </layer>
</map>
