<?xml version="1.0" encoding="UTF-8"?>
<map version="1.10" tiledversion="1.12.1" orientation="orthogonal" renderorder="right-down" width="20" height="15" tilewidth="16" tileheight="16" infinite="0" nextlayerid="4" nextobjectid="1">
 <tileset firstgid="1" source="plains.tsx"/>
 <layer id="1" name="Desen Katmanı 1" width="20" height="15">
  <data encoding="csv">
9,9,9,9,9,9,9,9,9,9,9,9,9,9,9,9,9,9,9,9,
9,9,9,9,9,9,9,9,9,9,9,9,9,9,9,9,9,9,9,9,
9,9,9,9,9,9,9,9,9,9,9,9,9,9,9,9,9,9,9,9,
9,9,9,9,9,9,9,9,9,9,9,9,9,9,9,9,9,9,9,9,
9,9,9,9,9,9,9,9,9,9,9,9,9,9,9,9,9,9,9,9,
9,9,9,9,9,9,9,9,9,9,9,9,9,9,9,9,9,9,9,9,
9,9,9,9,9,9,9,9,9,9,9,9,9,9,9,9,9,9,9,9,
9,9,9,9,9,9,9,9,9,9,9,9,9,9,9,9,9,9,9,9,
9,9,9,9,9,9,9,9,9,9,9,9,9,9,9,9,9,9,9,9,
9,9,9,9,9,9,9,9,9,9,9,9,9,9,9,9,9,9,9,9,
9,9,9,9,9,9,9,9,9,9,9,9,9,9,9,9,9,9,9,9,
9,9,9,9,9,9,9,9,9,9,9,9,9,9,9,9,9,9,9,9,
9,9,9,9,9,9,9,9,9,9,9,9,9,9,9,9,9,9,9,9,
9,9,9,9,9,9,9,9,9,9,9,9,9,9,9,9,9,9,9,9,
9,9,9,9,9,9,9,9,9,9,9,9,9,9,9,9,9,9,9,9
</data>
 </layer>
 <layer id="2" name="Desen Katmanı 2" width="20" height="15">
  <data encoding="csv">
49,49,49,49,49,49,49,49,49,8,10,49,49,49,49,49,49,49,49,49,
49,49,49,49,49,49,49,49,49,8,10,49,49,49,49,49,49,49,49,49,
49,49,49,49,49,49,49,49,49,8,10,49,49,49,49,49,49,49,49,49,
49,49,49,49,49,49,49,49,49,8,10,49,49,49,49,49,49,49,49,49,
49,49,49,49,49,49,49,49,49,8,10,49,49,49,49,49,49,49,49,49,
49,49,49,49,49,49,49,49,49,8,10,49,49,49,49,49,49,49,49,49,
49,49,49,49,49,49,49,49,49,8,10,49,49,49,49,49,49,49,49,49,
3,3,3,3,3,3,3,3,3,12,11,3,3,3,3,3,3,3,3,3,
9,9,9,9,9,9,9,9,9,9,9,9,9,9,9,9,9,9,9,9,
15,15,15,15,15,15,15,15,15,6,5,15,15,15,15,15,15,15,15,15,
49,49,49,49,49,49,49,49,49,8,10,49,49,49,49,49,49,49,49,49,
49,49,49,49,49,49,49,49,49,8,10,49,49,49,49,49,49,49,49,49,
49,49,49,49,49,49,49,49,49,8,10,49,49,49,49,49,49,49,49,49,
49,49,49,49,49,49,49,49,49,8,10,49,49,49,49,49,49,49,49,49,
49,49,49,49,49,49,49,49,49,8,10,49,49,49,49,49,49,49,49,49
</data>
 </layer>
 <layer id="3" name="Desen Katmanı 3" width="20" height="15">
  <data encoding="csv">
39,39,39,39,39,39,39,39,40,0,0,38,39,39,39,39,39,39,39,30,
50,0,48,0,0,0,0,0,0,0,0,0,0,0,47,0,0,0,0,32,
56,0,0,0,0,0,0,47,0,0,0,0,0,0,0,48,0,0,0,32,
56,0,47,0,48,0,0,0,0,0,0,0,0,0,0,47,0,47,0,32,
56,0,0,0,0,0,0,0,0,0,0,0,0,48,0,0,0,0,0,32,
56,0,0,0,0,0,0,0,0,0,0,0,0,0,0,0,0,48,0,32,
50,0,0,0,0,47,0,0,0,0,0,0,0,0,47,0,0,0,0,32,
65,0,0,0,0,0,0,0,0,0,0,0,0,0,0,0,0,0,0,38,
0,0,0,0,0,0,0,0,0,0,0,0,0,0,0,0,0,0,0,0,
0,0,0,0,0,0,0,0,0,0,0,0,0,0,0,0,0,0,0,0,
70,70,70,70,70,70,70,70,53,0,0,26,27,27,27,27,27,27,27,27,
0,0,0,0,0,0,0,0,50,0,0,32,33,33,33,33,33,33,33,33,
0,0,47,0,48,0,47,0,50,0,0,32,33,33,33,33,33,33,33,33,
0,0,0,0,0,0,48,0,50,0,0,32,33,33,33,33,33,33,33,33,
44,45,45,45,45,45,45,46,50,0,0,32,33,33,33,33,33,33,33,33
</data>
 </layer>
</map>
