<?xml version="1.0" encoding="UTF-8"?>
<map version="1.10" tiledversion="1.12.1" orientation="orthogonal" renderorder="right-down" width="20" height="15" tilewidth="16" tileheight="16" infinite="0" nextlayerid="4" nextobjectid="1">
 <tileset firstgid="1" source="plains.tsx"/>
 <tileset firstgid="73" source="../../Programming/PythonGame/assets/plains.tsx"/>
 <layer id="1" name="Desen Katmanı 1" width="20" height="15">
  <data encoding="csv">
9,9,9,9,9,9,9,9,9,9,9,49,49,49,49,49,49,49,49,49,
9,9,9,9,9,9,9,9,9,9,9,49,49,49,49,49,49,49,49,49,
9,9,9,9,9,9,9,9,9,9,9,49,49,48,49,49,49,47,49,49,
9,9,9,9,9,9,9,9,9,9,9,49,49,49,49,47,49,49,49,49,
9,9,9,9,9,9,9,9,9,9,9,49,49,49,49,49,49,49,9,9,
9,9,9,9,9,9,9,9,9,9,9,49,49,49,48,49,49,9,9,9,
9,9,9,9,9,9,9,9,9,9,9,49,49,49,49,49,49,9,9,9,
9,9,9,9,9,9,9,9,9,9,9,9,49,49,49,49,49,9,9,9,
9,9,9,9,9,9,9,9,9,9,9,9,3,9,9,3,9,9,9,9,
9,9,9,9,9,9,9,9,9,9,9,9,9,9,9,9,9,9,9,9,
9,9,9,9,9,9,9,9,9,9,9,9,9,9,9,9,9,9,9,9,
9,9,9,9,9,9,9,9,9,9,9,9,9,9,9,9,9,9,9,9,
9,9,9,9,9,9,9,9,9,9,9,9,9,9,9,9,9,9,9,9,
9,9,9,9,9,9,9,9,9,9,9,9,9,9,9,9,9,9,9,9,
9,9,9,9,9,9,9,9,9,9,9,9,9,9,9,9,9,9,9,9
</data>
 </layer>
 <layer id="2" name="Desen Katmanı 2" width="20" height="15">
  <data encoding="csv">
33,34,0,0,0,0,0,56,0,0,32,34,70,70,70,70,70,70,70,53,
33,34,0,0,0,0,0,56,0,0,32,34,0,0,0,0,0,0,0,50,
33,34,0,0,0,0,0,56,0,0,32,34,0,0,0,0,0,0,0,50,
33,34,0,0,0,0,0,56,0,0,32,34,0,0,0,0,26,27,27,50,
33,34,0,0,0,0,0,56,0,0,32,34,0,0,0,0,32,33,33,33,
33,34,0,0,0,0,0,56,0,0,32,34,0,0,0,0,32,33,33,33,
39,40,0,0,0,0,0,56,0,0,32,34,0,0,0,0,32,33,33,33,
64,64,64,64,64,64,64,65,0,0,32,35,28,0,0,26,41,39,39,39,
0,0,0,0,0,0,0,0,0,0,38,39,40,0,0,38,40,0,0,0,
9,9,0,0,0,0,0,0,9,0,0,0,0,0,0,0,0,9,9,9,
27,28,0,0,0,0,0,0,26,27,27,27,27,27,27,27,27,27,27,27,
33,34,0,0,0,0,0,0,32,33,33,33,33,33,33,33,33,33,33,33,
33,34,0,0,0,0,0,0,32,33,33,33,33,33,33,33,33,33,33,33,
33,35,27,27,27,27,27,27,36,33,33,33,33,33,33,33,33,33,33,33,
33,33,33,33,33,33,33,33,33,33,33,33,33,33,33,33,33,33,33,33
</data>
 </layer>
 <layer id="3" name="Desen Katmanı 3" width="20" height="15">
  <data encoding="csv">
0,0,0,0,0,0,0,0,0,0,0,0,0,0,0,0,0,0,0,0,
0,0,0,0,0,0,0,0,0,0,0,0,0,0,0,0,0,0,0,0,
0,0,0,0,0,0,0,0,0,0,0,0,0,0,0,0,0,0,0,0,
0,0,0,0,0,0,0,0,0,0,0,0,0,0,0,0,0,0,0,27,
0,0,0,0,0,0,0,0,0,0,0,0,0,0,0,0,0,0,0,0,
0,0,0,0,0,0,0,0,0,0,0,0,0,0,0,0,0,0,0,0,
0,0,0,0,0,0,0,0,0,0,0,0,0,0,0,0,0,0,0,0,
0,0,0,0,0,0,0,0,0,0,0,0,0,0,0,0,0,0,0,0,
0,0,0,0,0,0,0,0,0,0,0,0,0,3,3,0,0,0,0,0,
0,0,0,0,0,0,0,0,0,0,0,0,0,0,0,0,0,0,0,0,
0,0,0,0,0,0,0,0,0,0,0,0,0,0,0,0,0,0,0,0,
0,0,0,0,0,0,0,0,0,0,0,0,0,0,0,0,0,0,0,0,
0,0,0,0,0,0,0,0,0,0,0,0,0,0,0,0,0,0,0,0,
0,0,0,0,0,0,0,0,0,0,0,0,0,0,0,0,0,0,0,0,
0,0,0,0,0,0,0,0,0,0,0,0,0,0,0,0,0,0,0,0
</data>
 </layer>
</map>
