<?xml version="1.0" encoding="UTF-8"?>
<map version="1.10" tiledversion="1.12.1" orientation="orthogonal" renderorder="right-down" width="20" height="15" tilewidth="16" tileheight="16" infinite="0" nextlayerid="3" nextobjectid="1">
 <tileset firstgid="1" source="plains.tsx"/>
 <layer id="1" name="Desen Katmanı 1" width="20" height="15">
  <data encoding="csv">
9,9,9,9,9,9,9,9,9,9,9,9,9,9,9,9,9,9,9,9,
9,9,9,9,9,9,9,9,9,9,9,9,9,9,9,9,9,9,9,9,
9,9,9,9,9,9,9,9,9,9,9,9,9,9,9,9,9,9,9,9,
9,9,9,9,9,9,9,9,9,9,9,9,9,9,9,9,9,9,9,9,
9,9,9,9,9,9,9,9,9,9,9,9,9,9,9,9,9,9,9,9,
9,9,9,9,9,9,9,9,9,9,9,9,9,9,9,9,9,9,9,9,
9,9,9,9,9,9,9,9,9,9,9,9,9,9,9,9,9,9,9,9,
9,9,9,9,9,9,9,9,9,9,9,9,9,9,9,10,49,49,49,49,
9,9,9,9,9,9,9,9,9,9,9,9,9,9,9,9,9,9,9,9,
9,9,9,9,9,9,9,9,9,9,9,9,9,9,9,9,9,9,9,9,
9,9,9,9,9,9,9,9,9,9,9,9,9,9,9,10,49,49,49,49,
9,9,9,9,9,9,9,9,9,9,9,9,9,9,9,9,9,9,9,9,
9,9,9,9,9,9,9,9,9,9,9,9,9,9,9,9,9,9,9,9,
9,9,9,9,9,9,9,9,9,9,9,9,9,9,9,9,9,9,9,9,
9,9,9,9,9,9,9,9,9,9,9,9,9,9,9,9,9,9,9,9
</data>
 </layer>
 <layer id="2" name="Desen Katmanı 2" width="20" height="15">
  <data encoding="csv">
0,0,0,0,0,0,0,0,50,0,0,32,33,33,33,33,33,33,33,33,
0,0,0,0,57,70,70,70,65,0,0,38,39,39,39,30,33,33,33,33,
0,0,0,0,50,0,0,0,9,0,0,0,0,0,0,32,33,33,33,33,
0,0,0,0,50,0,0,0,9,0,0,0,0,0,0,32,33,33,33,33,
0,0,0,0,50,0,0,0,9,0,0,0,0,0,0,32,33,33,33,33,
0,0,0,0,50,0,0,0,9,0,0,0,0,0,0,32,33,33,33,33,
64,64,64,64,65,0,0,0,9,0,0,0,0,0,0,32,33,33,33,33,
0,0,0,0,0,0,0,0,0,0,0,0,0,0,0,38,39,39,39,39,
0,0,0,0,0,0,0,0,0,0,0,0,0,0,0,11,3,3,3,3,
64,64,64,64,53,0,0,0,0,0,0,0,0,0,0,5,15,15,15,15,
0,0,0,0,50,0,0,0,0,0,0,26,27,27,27,27,27,27,27,27,
0,0,0,0,50,0,0,0,0,0,0,32,33,33,33,33,33,33,33,33,
0,0,0,0,50,0,0,0,0,0,0,32,33,33,33,33,33,33,33,33,
0,0,0,0,63,70,70,70,70,70,70,32,33,33,33,33,33,33,33,33,
0,0,0,0,0,0,0,0,9,0,0,32,33,33,33,33,33,33,33,33
</data>
 </layer>
</map>
