<?xml version="1.0" encoding="UTF-8"?>
<map version="1.10" tiledversion="1.12.1" orientation="orthogonal" renderorder="right-down" width="20" height="15" tilewidth="16" tileheight="16" infinite="0" nextlayerid="4" nextobjectid="1">
 <tileset firstgid="1" source="plains.tsx"/>
 <layer id="1" name="Desen Katmanı 1" width="20" height="15">
  <data encoding="csv">
9,9,9,9,9,9,9,9,9,9,9,9,9,9,9,9,9,9,9,9,
9,9,9,9,9,9,9,9,9,9,9,9,9,9,9,9,9,9,9,9,
9,9,9,9,9,9,9,9,9,9,9,9,9,9,9,9,9,9,9,9,
9,9,9,9,9,9,9,9,9,9,9,9,9,9,9,9,9,9,9,9,
9,9,9,9,9,9,9,9,9,9,9,9,9,47,9,9,9,9,9,9,
9,9,9,9,9,9,9,9,9,9,9,9,9,9,9,47,9,9,9,9,
9,9,9,9,9,9,9,9,9,9,9,9,9,9,9,9,9,9,9,9,
9,9,9,9,9,9,9,9,9,9,9,9,9,47,9,9,9,9,9,9,
9,9,9,9,9,9,9,9,9,9,9,9,9,9,9,9,9,9,9,9,
9,9,9,9,9,9,9,9,9,9,9,9,9,9,9,9,9,9,9,9,
9,9,9,9,9,9,9,9,9,9,9,9,9,9,9,9,9,9,9,9,
9,9,9,9,9,9,9,9,9,9,9,9,9,9,9,9,9,9,9,9,
9,9,9,9,9,9,9,9,9,9,9,9,9,9,9,9,9,9,9,9,
9,9,9,9,9,9,9,9,9,9,9,9,9,9,9,9,9,9,9,9,
9,9,9,9,9,9,9,9,8,9,9,9,9,9,9,9,9,9,9,9
</data>
 </layer>
 <layer id="2" name="Desen Katmanı 2" width="20" height="15">
  <data encoding="csv">
0,0,0,0,0,0,10,49,49,8,10,49,49,49,49,0,0,0,0,0,
0,0,0,0,0,0,10,49,49,8,10,49,49,49,49,0,0,0,0,0,
0,0,0,0,0,0,11,3,3,12,10,49,49,49,49,49,49,49,49,49,
0,0,0,0,0,0,0,0,0,0,10,49,49,49,49,49,49,49,49,49,
15,15,15,6,0,0,0,0,0,0,10,49,49,49,49,49,49,49,49,49,
49,49,49,8,0,0,0,0,0,0,10,49,49,49,49,49,49,49,49,49,
49,49,49,14,15,6,0,0,0,0,10,49,49,49,49,49,49,49,49,49,
49,49,49,49,49,14,15,6,0,0,10,49,49,49,49,49,49,49,49,49,
4,49,49,49,49,49,49,8,0,0,10,49,49,49,49,49,49,49,49,49,
11,4,49,49,49,49,49,14,6,0,10,49,49,49,49,49,49,49,49,49,
0,11,3,4,49,49,49,49,8,0,10,49,49,49,49,49,49,49,49,49,
0,0,0,10,49,49,49,49,14,6,10,49,49,49,49,49,49,49,49,49,
0,0,0,10,49,49,49,49,49,8,10,49,49,49,49,49,49,49,49,49,
0,0,0,11,4,49,49,49,49,8,10,2,3,3,3,3,3,3,3,3,
9,9,9,9,11,4,49,49,49,8,10,8,9,9,9,9,9,9,9,9
</data>
 </layer>
 <layer id="3" name="Desen Katmanı 3" width="20" height="15">
  <data encoding="csv">
51,70,70,70,70,70,70,70,65,0,0,69,70,71,32,33,33,33,33,33,
50,0,0,0,0,0,0,47,0,0,0,0,0,0,32,33,33,33,33,33,
50,43,0,0,0,0,0,0,0,0,0,0,0,0,38,39,39,39,39,39,
50,43,43,0,0,0,0,68,0,0,0,0,68,0,0,0,0,0,43,43,
50,0,43,0,0,0,0,0,0,0,0,0,47,0,0,48,47,0,43,50,
50,0,0,43,0,0,0,0,0,0,0,0,0,0,0,0,0,0,43,50,
50,0,0,0,0,0,0,68,0,0,0,0,68,0,0,0,0,43,43,50,
50,0,47,0,0,0,0,0,0,0,0,0,0,0,48,0,43,43,0,50,
50,0,0,48,0,0,43,43,43,0,0,0,0,47,0,0,0,0,0,50,
50,0,0,0,0,0,43,0,0,0,0,0,0,0,0,0,0,0,0,50,
50,0,0,0,47,0,0,0,0,0,0,0,0,0,0,0,0,48,0,50,
50,0,0,0,43,0,47,0,0,0,0,0,48,0,0,0,0,0,0,50,
50,0,0,0,43,0,0,48,0,0,0,0,0,0,47,0,0,0,0,50,
50,0,0,0,43,0,0,0,0,0,0,0,0,0,0,0,0,0,0,50,
45,45,45,45,45,45,45,45,46,0,0,44,45,45,45,45,45,45,45,45
</data>
 </layer>
</map>
