<?xml version="1.0" encoding="UTF-8"?>
<map version="1.10" tiledversion="1.12.1" orientation="orthogonal" renderorder="right-down" width="20" height="15" tilewidth="16" tileheight="16" infinite="0" nextlayerid="4" nextobjectid="1">
 <tileset firstgid="1" source="plains.tsx"/>
 <layer id="1" name="Desen Katmanı 1" width="20" height="15">
  <data encoding="csv">
26,27,27,27,27,27,27,27,27,27,27,27,27,27,27,27,27,27,27,28,
32,33,33,33,33,33,33,33,33,33,33,33,33,33,33,33,33,33,33,34,
32,33,33,33,33,33,33,33,33,33,33,33,33,33,33,33,33,33,33,34,
32,33,33,33,33,33,33,33,33,33,33,33,33,33,33,33,33,33,33,34,
32,33,33,33,33,33,33,33,33,33,33,33,33,33,33,33,33,33,33,34,
32,33,33,33,33,33,33,33,33,33,33,33,33,33,33,33,33,33,33,34,
32,33,33,33,33,33,33,33,33,33,33,33,33,33,33,33,33,33,33,35,
32,33,33,33,33,33,33,33,33,33,33,33,33,33,33,33,33,33,33,33,
32,33,33,33,33,33,33,33,33,33,33,33,33,33,33,33,33,33,33,29,
32,33,33,33,33,33,33,33,33,33,33,33,33,33,33,33,33,33,33,34,
32,33,33,33,33,33,33,33,33,33,33,33,33,33,33,33,33,33,33,34,
32,33,33,33,33,33,33,33,33,33,33,33,33,33,33,33,33,33,33,34,
32,33,33,33,33,33,33,33,33,33,33,33,33,33,33,33,33,33,33,34,
32,33,33,33,33,33,33,33,33,33,33,33,33,33,33,33,33,33,33,34,
38,39,39,39,39,39,39,39,39,39,39,39,39,39,39,39,39,39,39,40
</data>
 </layer>
 <layer id="2" name="Desen Katmanı 2" width="20" height="15">
  <data encoding="csv">
0,0,0,49,49,49,49,49,49,49,49,49,49,49,49,49,49,49,49,49,
0,0,0,49,49,49,49,49,49,49,49,49,49,49,49,49,49,49,49,49,
0,0,0,49,49,49,49,49,49,49,49,49,49,49,49,49,49,49,49,49,
0,0,0,49,49,49,49,49,49,49,49,49,49,49,49,49,49,49,49,49,
0,0,33,2,3,3,3,4,49,49,49,49,49,49,49,49,49,49,49,49,
0,0,0,8,9,9,9,10,49,49,49,49,49,49,49,49,49,49,49,49,
0,0,0,8,9,9,9,11,3,3,3,3,3,3,3,3,3,3,3,3,
0,0,0,8,9,9,9,5,15,15,15,15,15,15,15,15,15,15,15,15,
0,0,0,8,9,9,9,10,49,49,49,49,49,49,49,49,49,49,49,49,
0,0,0,14,15,15,15,16,49,49,49,49,49,49,49,49,49,49,49,49,
0,0,0,49,49,49,49,49,49,49,49,49,49,49,49,49,49,49,49,49,
0,0,0,49,49,49,49,49,49,49,49,49,49,49,49,49,49,49,49,49,
0,0,0,49,49,49,49,49,49,49,49,49,49,49,49,49,49,49,49,49,
0,0,0,49,49,49,49,49,49,49,49,49,49,49,49,49,49,49,49,49,
0,0,0,49,49,49,49,49,49,49,49,49,49,49,49,49,49,49,49,49
</data>
 </layer>
 <layer id="3" name="Desen Katmanı 3" width="20" height="15">
  <data encoding="csv">
0,0,36,51,70,70,70,70,70,70,70,70,70,70,70,70,70,70,70,53,
0,0,0,56,0,0,0,0,0,0,0,0,0,0,0,0,0,0,0,56,
0,0,0,56,0,0,0,0,0,0,0,0,0,0,0,0,0,0,0,56,
0,0,0,56,0,0,0,0,0,0,0,0,0,0,0,0,0,0,0,56,
0,0,0,56,0,0,0,0,0,0,0,0,0,0,0,0,0,0,0,56,
0,0,0,56,0,0,0,0,0,0,0,0,0,0,0,0,0,0,0,68,
0,0,0,56,0,0,0,0,0,0,0,0,0,0,0,0,0,0,0,0,
0,0,0,56,0,0,0,0,0,0,0,0,0,0,0,0,0,0,0,0,
0,0,0,56,0,0,0,0,0,0,0,0,0,0,0,0,0,0,0,56,
0,0,0,56,0,0,0,0,0,0,0,0,0,0,0,0,0,0,0,56,
0,0,0,56,0,0,0,0,0,0,0,0,0,0,0,0,0,0,0,56,
0,0,0,56,0,0,0,0,0,0,0,0,0,0,0,0,0,0,0,56,
0,0,0,56,0,0,0,0,0,0,0,0,0,0,0,0,0,0,0,56,
0,0,0,56,0,0,0,0,0,0,0,0,0,0,0,0,0,0,0,56,
0,0,30,69,70,70,70,70,70,70,70,70,70,70,70,70,70,70,70,65
</data>
 </layer>
</map>
