<?xml version="1.0" encoding="UTF-8"?>
<map version="1.10" tiledversion="1.12.1" orientation="orthogonal" renderorder="right-down" width="20" height="15" tilewidth="16" tileheight="16" infinite="0" nextlayerid="6" nextobjectid="1">
 <tileset firstgid="1" source="interior_tiles.tsx"/>
 <layer id="1" name="Desen Katmanı 1" width="20" height="15">
  <data encoding="csv">
2,2,2,2,2,2,2,2,2,2,289,289,2,2,2,2,2,2,2,2,
50,50,50,50,50,50,50,50,50,50,289,289,50,50,50,50,50,50,50,50,
289,289,289,289,289,289,289,289,289,290,289,289,289,290,289,289,289,290,289,289,
289,289,289,289,289,289,290,289,289,289,289,289,289,289,289,290,289,290,289,289,
289,289,289,289,289,290,289,289,290,289,290,289,289,289,289,289,289,289,289,289,
289,289,289,290,289,289,289,289,289,289,290,289,289,289,289,290,289,289,289,289,
289,289,289,289,289,289,289,290,289,289,289,289,289,289,289,289,289,289,290,289,
289,290,289,289,289,289,289,289,289,289,289,289,290,289,289,289,289,289,289,289,
289,289,289,290,289,289,289,289,289,290,289,289,289,289,289,289,289,289,289,289,
289,289,289,289,289,290,289,289,289,289,289,290,289,290,289,289,290,289,289,289,
290,289,289,289,289,289,289,289,289,289,289,289,289,289,289,289,289,289,289,290,
289,289,289,289,290,289,289,289,289,289,290,289,289,289,289,290,289,289,289,289,
289,289,289,289,290,289,290,289,289,289,289,289,289,289,289,289,289,289,289,289,
289,290,289,289,289,290,289,289,289,289,289,290,290,289,289,289,289,290,289,289,
289,289,289,289,290,289,289,289,289,289,289,289,289,289,289,289,289,289,290,289
</data>
 </layer>
 <layer id="2" name="Desen Katmanı 2" width="20" height="15">
  <data encoding="csv">
0,0,15,16,0,0,0,0,10,2,2,2,2,0,15,16,0,0,0,0,
0,0,63,64,0,0,0,0,58,50,50,50,50,0,63,64,0,0,0,0,
629,0,0,0,0,0,0,0,0,0,0,0,0,0,0,0,0,0,0,625,
629,0,0,0,0,0,0,0,0,0,0,0,0,0,0,0,0,0,0,625,
629,0,0,0,0,0,0,0,0,0,0,0,0,0,0,0,0,0,0,625,
629,0,0,0,0,0,0,0,0,0,0,0,0,0,0,0,0,0,0,625,
629,0,0,161,162,162,162,162,162,162,162,162,162,162,162,162,162,163,0,625,
629,0,0,209,210,210,210,210,210,210,210,210,210,210,210,210,210,211,0,625,
629,0,0,209,210,210,210,210,210,210,210,210,210,210,210,210,210,211,0,625,
629,0,0,209,210,210,210,210,210,210,210,210,210,210,210,210,210,211,0,625,
629,0,0,257,258,258,258,258,258,258,258,258,258,258,258,258,258,259,0,625,
629,0,0,0,0,0,0,0,0,0,0,0,0,0,0,0,0,0,0,625,
629,0,0,0,0,0,0,0,0,0,0,0,0,0,0,0,0,0,0,625,
629,0,0,0,0,0,0,0,0,0,0,0,0,0,0,0,0,0,0,625,
580,531,531,531,531,531,531,531,531,170,170,531,531,531,531,531,531,531,531,578
</data>
 </layer>
 <layer id="3" name="Desen Katmanı 3" width="20" height="15">
  <data encoding="csv">
0,0,105,106,0,0,0,0,0,0,587,588,0,0,105,106,0,0,0,0,
0,0,153,154,691,692,694,693,0,0,635,636,0,0,153,154,0,457,458,0,
0,0,0,0,739,740,742,741,0,0,0,0,0,0,0,0,0,505,506,0,
0,0,0,0,0,0,0,0,0,0,0,0,0,0,0,0,0,0,249,0,
0,0,0,0,0,0,0,0,0,0,0,0,0,0,0,0,0,0,297,0,
0,0,0,0,0,0,0,0,0,0,0,0,0,0,0,0,0,0,0,0,
0,0,0,0,0,0,0,0,0,0,0,0,0,0,0,0,0,0,0,0,
0,0,0,0,0,0,0,0,304,203,204,400,0,0,0,0,0,0,0,0,
0,0,0,0,0,0,0,0,304,251,252,400,0,0,0,0,0,0,0,0,
0,0,0,0,0,0,0,0,0,0,533,0,0,0,0,0,0,0,0,0,
0,0,0,0,0,0,0,0,0,0,0,0,0,0,0,0,0,0,0,0,
0,0,0,0,0,0,0,0,0,0,0,0,0,0,0,0,0,0,0,0,
0,0,0,0,0,0,0,0,0,0,0,0,0,0,0,0,0,0,535,0,
0,0,0,0,0,0,0,0,0,0,0,0,0,0,0,0,0,0,583,0,
0,0,0,0,0,0,0,0,0,0,0,0,0,0,0,0,0,0,0,0
</data>
 </layer>
 <layer id="5" name="Desen Katmanı 4" width="20" height="15">
  <data encoding="csv">
0,0,0,0,493,493,0,0,0,0,0,0,0,0,0,0,0,0,0,0,
0,0,0,0,541,541,0,0,0,0,0,0,0,0,0,0,0,0,0,0,
0,0,0,0,0,0,0,0,0,0,0,0,0,0,0,0,0,0,0,0,
0,0,0,0,0,0,0,0,0,0,0,0,0,0,0,0,0,0,0,0,
0,0,0,0,0,0,0,0,0,0,0,0,0,0,0,0,0,0,0,0,
0,0,0,0,0,0,0,0,0,0,0,0,0,0,0,0,0,0,0,0,
0,0,0,0,0,0,0,0,0,0,0,0,0,0,0,0,0,0,0,0,
0,0,0,0,0,0,0,0,0,0,0,0,0,0,0,0,0,0,0,0,
0,0,0,0,0,0,0,0,0,0,0,0,0,0,0,0,0,0,0,0,
0,0,0,0,0,0,0,0,0,0,0,0,0,0,0,0,0,0,0,0,
0,0,0,0,0,0,0,0,0,0,0,0,0,0,0,0,0,0,0,0,
0,0,0,0,0,0,0,0,0,0,0,0,0,0,0,0,0,0,0,0,
0,0,0,0,0,0,0,0,0,0,0,0,0,0,0,0,0,0,0,0,
0,0,0,0,0,0,0,0,0,0,0,0,0,0,0,0,0,0,0,0,
0,0,0,0,0,0,0,0,0,0,0,0,0,0,0,0,0,0,0,0
</data>
 </layer>
</map>
