<?xml version="1.0" encoding="UTF-8"?>
<map version="1.10" tiledversion="1.12.1" orientation="orthogonal" renderorder="right-down" width="20" height="15" tilewidth="16" tileheight="16" infinite="0" nextlayerid="4" nextobjectid="1">
 <tileset firstgid="1" source="plains.tsx"/>
 <layer id="1" name="Desen Katmanı 1" width="20" height="15">
  <data encoding="csv">
9,9,9,9,9,9,9,9,9,9,9,9,9,9,9,9,9,9,9,9,
9,9,9,9,9,9,9,9,9,9,9,9,9,9,9,9,9,9,9,9,
9,9,9,9,9,9,9,9,9,9,9,9,9,9,9,9,9,9,9,9,
9,9,9,9,9,9,9,9,9,9,9,9,9,9,9,9,9,9,9,9,
9,9,9,9,9,9,9,9,9,9,9,9,9,9,9,9,9,9,9,9,
9,9,9,9,9,9,9,9,9,9,9,9,9,9,9,9,9,9,9,9,
9,9,9,9,9,9,9,9,9,9,9,9,9,9,9,9,9,9,9,9,
9,9,9,9,9,9,9,9,9,9,9,9,9,9,9,9,9,9,9,9,
9,9,9,9,9,9,9,9,9,9,9,9,9,9,9,9,9,9,9,9,
9,9,9,9,9,9,9,9,9,9,9,9,9,9,9,9,9,9,9,9,
9,9,9,9,9,9,9,9,9,9,9,9,9,9,9,9,9,9,9,9,
9,9,9,9,9,9,9,9,9,9,9,9,9,9,9,9,9,9,9,9,
9,9,9,9,9,9,9,9,9,9,9,9,9,9,9,9,9,9,9,9,
9,9,9,9,9,9,9,9,9,9,9,9,9,9,9,9,9,9,9,9,
9,9,9,9,9,9,9,9,9,9,9,9,9,9,9,9,9,9,9,9
</data>
 </layer>
 <layer id="2" name="Desen Katmanı 2" width="20" height="15">
  <data encoding="csv">
49,49,49,49,49,49,49,49,49,49,49,49,49,49,49,49,49,49,49,49,
49,49,49,49,49,49,49,49,49,49,49,49,49,49,49,49,49,49,49,49,
49,49,49,49,49,49,49,49,49,49,49,49,49,49,49,49,49,49,49,49,
49,49,49,49,49,49,49,49,49,49,49,49,49,49,49,49,49,49,49,49,
49,49,49,49,49,49,49,49,49,49,49,49,49,49,49,49,49,49,49,49,
49,49,49,49,49,49,49,49,49,49,49,49,49,49,49,49,49,49,49,49,
3,3,3,3,3,3,3,3,3,3,3,3,3,3,3,3,3,3,3,3,
15,15,15,15,15,15,15,15,6,5,15,15,15,15,15,15,15,15,15,15,
49,49,49,49,49,49,49,49,8,10,49,49,49,49,49,49,49,49,49,49,
49,49,49,49,49,49,49,49,8,10,49,49,49,49,49,49,49,49,49,49,
49,49,49,49,49,49,49,49,8,10,49,49,49,49,49,49,49,49,49,49,
49,49,49,49,49,49,49,49,8,10,49,49,49,49,49,49,49,49,49,49,
49,49,49,49,49,49,49,49,8,10,49,49,49,49,49,49,49,49,49,49,
49,49,49,49,49,49,49,49,8,10,49,49,49,49,49,49,49,49,49,49,
49,49,49,49,49,49,49,49,8,10,49,49,49,49,49,49,49,49,49,49
</data>
 </layer>
 <layer id="3" name="Desen Katmanı 3" width="20" height="15">
  <data encoding="csv">
43,0,0,44,45,45,45,45,45,45,45,45,45,45,45,45,46,0,43,0,
0,0,43,0,0,0,0,0,0,0,43,0,0,0,0,0,0,0,43,0,
0,47,0,0,43,0,48,43,0,0,0,0,43,0,0,47,0,43,0,43,
0,43,0,47,0,0,0,0,0,43,0,0,0,0,0,0,0,0,43,0,
0,0,0,0,0,0,0,0,0,0,0,47,0,0,43,0,0,0,0,0,
70,70,70,70,70,70,70,70,70,70,70,70,70,70,70,70,70,70,70,70,
0,0,0,0,0,0,0,0,0,0,0,0,0,0,0,0,0,0,0,0,
0,0,0,0,0,0,0,0,0,0,0,0,0,0,0,0,0,0,0,0,
27,28,0,0,48,0,47,0,0,0,0,0,0,0,0,0,0,0,0,50,
33,34,0,48,0,0,0,0,0,0,0,0,0,0,0,48,0,0,0,50,
33,34,0,0,0,0,47,0,0,0,0,0,47,0,0,0,0,0,0,50,
33,35,27,27,27,27,27,28,0,0,0,0,0,47,68,0,0,48,0,50,
33,33,33,33,33,33,33,34,0,0,0,0,0,0,0,0,0,0,0,50,
33,33,33,33,33,33,33,34,0,0,0,0,0,0,48,0,0,0,0,50,
33,33,33,33,33,33,33,34,0,0,63,70,70,70,70,70,70,70,70,65
</data>
 </layer>
</map>
