<?xml version="1.0" encoding="UTF-8"?>
<map version="1.10" tiledversion="1.12.1" orientation="orthogonal" renderorder="right-down" width="20" height="15" tilewidth="16" tileheight="16" infinite="0" nextlayerid="3" nextobjectid="1">
 <tileset firstgid="1" source="interior_tiles.tsx"/>
 <layer id="1" name="Desen Katmanı 1" width="20" height="15">
  <data encoding="csv">
7,7,7,7,7,7,7,7,7,7,7,7,7,7,7,7,7,7,7,7,
55,55,55,55,55,55,55,55,55,55,55,55,55,55,55,55,55,55,55,55,
289,289,289,289,289,289,289,289,289,290,289,289,289,290,289,289,289,290,289,289,
289,289,289,289,289,289,290,289,289,289,289,289,289,289,289,290,289,290,289,289,
289,289,289,289,289,290,289,289,290,289,290,289,289,289,289,289,289,289,289,289,
289,289,289,290,289,289,289,289,289,289,290,289,289,289,289,290,289,289,289,289,
289,289,289,289,289,289,289,289,289,289,289,289,289,289,289,289,289,289,290,289,
289,290,289,289,289,289,289,289,289,289,289,289,289,289,289,289,289,289,289,289,
289,289,289,290,289,289,289,289,289,290,289,289,289,289,289,289,289,289,289,289,
289,289,289,289,289,290,289,289,289,289,289,290,289,290,289,289,290,289,289,289,
290,289,289,289,289,289,289,289,289,289,289,289,289,289,289,289,289,289,289,290,
289,289,289,289,290,289,289,289,289,289,290,289,289,289,289,290,289,289,289,289,
289,289,289,289,290,289,290,289,289,289,289,289,289,289,289,289,289,289,289,289,
289,290,289,289,289,290,289,289,289,289,289,290,290,289,289,289,289,290,289,289,
289,289,289,289,290,289,289,289,289,289,289,289,289,289,289,289,289,289,290,289
</data>
 </layer>
 <layer id="2" name="Desen Katmanı 2" width="20" height="15">
  <data encoding="csv">
0,0,0,0,0,0,656,0,0,10,0,0,0,0,0,0,0,0,0,0,
0,0,682,647,648,682,704,0,0,58,0,0,489,490,0,0,0,0,0,0,
629,0,730,695,696,730,0,0,0,0,0,0,537,538,21,164,0,0,0,625,
629,0,0,0,0,0,0,0,0,0,0,0,0,0,0,0,0,0,0,625,
629,0,0,0,0,0,0,0,0,0,0,0,0,0,0,533,0,0,0,625,
629,0,0,0,0,0,0,0,0,0,0,0,0,0,0,0,0,0,450,625,
629,0,0,0,0,0,0,0,0,0,0,0,0,0,0,0,0,0,498,625,
629,0,0,0,0,0,256,203,204,256,0,0,0,0,0,0,0,0,0,0,
629,0,0,0,0,0,256,251,252,256,0,0,0,0,0,0,0,0,0,0,
629,499,0,0,0,0,0,0,0,0,0,0,0,0,0,0,0,0,0,625,
629,0,0,0,0,0,0,0,0,0,0,0,0,0,0,0,0,0,0,625,
629,0,0,0,0,0,0,0,0,533,0,0,0,0,0,0,0,0,0,625,
629,0,0,0,0,0,0,0,0,0,0,0,499,0,0,0,0,0,345,625,
629,0,0,0,644,0,0,0,0,0,0,0,0,0,0,0,631,0,0,625,
580,531,531,531,531,531,531,531,531,531,531,531,531,531,531,531,531,531,531,578
</data>
 </layer>
</map>
