<?xml version="1.0" encoding="UTF-8"?>
<map version="1.10" tiledversion="1.12.1" orientation="orthogonal" renderorder="right-down" width="20" height="15" tilewidth="16" tileheight="16" infinite="0" nextlayerid="4" nextobjectid="1">
 <tileset firstgid="1" source="interior_tiles.tsx"/>
 <layer id="1" name="Desen Katmanı 1" width="20" height="15">
  <data encoding="csv">
7,7,7,7,7,7,7,7,7,289,7,7,7,7,7,7,7,7,7,7,
55,55,55,55,55,55,55,55,55,289,289,55,55,55,55,55,55,55,55,55,
289,289,289,289,289,289,289,289,289,290,289,289,289,290,289,289,289,290,289,289,
289,289,289,289,289,289,290,289,289,289,289,289,289,289,289,290,289,290,289,289,
289,289,289,289,289,290,289,289,290,289,290,289,289,289,289,289,289,289,289,289,
289,289,289,290,289,289,289,289,289,289,290,289,289,289,289,290,289,289,289,289,
289,289,289,289,289,289,289,289,289,289,289,289,289,289,289,289,289,289,290,289,
289,290,289,289,289,289,289,289,289,289,289,289,289,289,289,289,289,289,289,289,
289,289,289,290,289,289,289,289,289,290,289,289,289,289,289,289,289,289,289,289,
289,289,289,289,289,290,289,289,289,289,289,290,289,290,289,289,290,289,289,289,
290,289,289,289,289,289,289,289,289,289,289,289,289,289,289,289,289,289,289,290,
289,289,289,289,290,289,289,289,289,289,290,289,289,289,289,290,289,289,289,289,
289,289,289,289,290,289,290,289,289,289,289,289,289,289,289,289,289,289,289,289,
289,290,289,289,289,290,289,289,289,289,289,290,290,289,289,289,289,290,289,289,
289,289,289,289,290,289,289,289,289,289,289,289,289,289,289,289,289,289,290,289
</data>
 </layer>
 <layer id="2" name="Desen Katmanı 2" width="20" height="15">
  <data encoding="csv">
0,0,0,0,0,0,0,0,196,218,218,194,0,0,0,0,0,0,0,0,
0,0,0,0,0,0,0,0,244,0,0,242,0,0,0,0,0,0,0,0,
629,0,0,0,0,0,0,0,0,0,0,0,0,0,0,0,0,0,0,625,
629,0,0,0,0,0,0,0,0,0,0,0,0,0,0,0,0,0,0,625,
629,0,0,0,0,0,0,0,0,0,0,0,0,0,0,0,0,0,0,625,
629,0,0,0,0,0,0,0,0,0,0,0,0,0,0,0,0,0,0,625,
629,0,0,305,306,306,306,306,306,306,306,306,306,306,306,306,306,307,0,625,
629,0,0,353,354,354,354,354,354,354,354,354,354,354,354,354,354,355,0,625,
629,0,0,353,354,354,354,354,354,354,354,354,354,354,354,354,354,355,0,625,
629,0,0,353,354,354,354,354,354,354,354,354,354,354,354,354,354,355,0,625,
629,0,0,401,402,402,402,402,402,402,402,402,402,402,402,402,402,403,0,625,
629,0,0,0,0,0,0,0,0,0,0,0,0,0,0,0,0,0,0,625,
629,0,0,0,0,0,0,0,0,0,0,0,0,0,0,0,0,0,0,625,
629,0,0,0,0,0,0,0,0,0,0,0,0,0,0,0,0,0,0,625,
580,531,531,531,531,531,531,531,531,531,531,531,531,531,531,531,531,531,531,578
</data>
 </layer>
 <layer id="3" name="Desen Katmanı 3" width="20" height="15">
  <data encoding="csv">
0,0,0,0,173,0,0,656,0,0,0,0,0,0,0,0,0,0,0,0,
0,0,0,364,365,366,0,704,0,149,150,0,0,0,69,0,22,23,0,0,
0,0,0,412,413,414,0,0,0,0,0,0,68,21,117,0,70,71,0,0,
0,0,0,0,0,0,0,0,0,0,0,0,0,0,0,0,0,0,0,0,
0,644,0,0,0,0,0,0,0,0,0,0,0,0,0,0,0,0,0,0,
0,0,0,0,0,205,206,206,206,206,206,206,206,206,207,0,0,0,0,0,
0,0,0,0,256,253,254,254,254,254,254,254,254,254,255,256,0,0,0,0,
0,0,0,0,0,253,254,254,254,254,254,254,254,254,255,0,0,0,0,0,
0,0,0,0,256,253,254,254,254,254,254,254,254,254,255,256,0,0,0,0,
0,0,0,0,0,301,302,302,302,302,302,302,302,302,303,0,0,0,0,0,
0,0,367,0,0,0,0,0,0,0,0,0,0,0,0,0,0,0,0,0,
0,0,0,0,0,533,0,0,0,0,0,0,0,0,0,0,0,0,0,0,
0,0,0,0,0,0,0,0,0,0,0,0,0,0,0,0,0,367,0,0,
0,0,738,0,0,0,0,0,0,0,0,0,0,116,0,0,644,0,0,0,
0,0,0,0,0,0,0,0,0,0,0,0,0,0,0,0,0,0,0,0
</data>
 </layer>
</map>
