<?xml version="1.0" encoding="UTF-8"?>
<map version="1.10" tiledversion="1.12.1" orientation="orthogonal" renderorder="right-down" width="20" height="15" tilewidth="16" tileheight="16" infinite="0" nextlayerid="3" nextobjectid="1">
 <tileset firstgid="1" source="interior_tiles.tsx"/>
 <layer id="1" name="Desen Katmanı 1" width="20" height="15">
  <data encoding="csv">
100,100,100,100,100,100,100,100,100,100,100,100,100,100,100,100,100,100,100,100,
148,148,148,148,148,148,148,148,148,148,148,148,148,148,148,148,148,148,148,148,
289,289,289,289,289,289,289,289,289,290,289,289,289,290,289,289,289,290,289,289,
289,289,289,289,289,289,290,289,289,289,289,289,289,289,289,290,289,290,289,289,
289,289,289,289,289,290,289,289,290,289,290,289,289,289,289,289,289,289,289,289,
289,289,289,290,289,289,289,289,289,289,290,289,289,289,289,290,289,289,289,289,
289,289,289,289,289,289,289,289,289,289,289,289,289,289,289,289,289,289,290,289,
289,290,289,289,289,289,289,289,289,289,289,289,289,289,289,289,289,289,289,289,
289,289,289,290,289,289,289,289,289,290,289,289,289,289,289,289,289,289,289,289,
289,289,289,289,289,290,289,289,289,289,289,290,289,290,289,289,290,289,289,289,
290,289,289,289,289,289,289,289,289,289,289,289,289,289,289,289,289,289,289,290,
289,289,289,289,290,289,289,289,289,289,290,289,289,289,289,290,289,289,289,289,
289,289,289,289,290,289,290,289,289,289,289,289,289,289,289,289,289,289,289,289,
289,290,289,289,289,290,289,289,289,289,289,290,290,289,289,289,289,290,289,289,
289,289,289,289,290,289,289,289,289,289,289,289,289,289,289,289,289,289,290,289
</data>
 </layer>
 <layer id="2" name="Desen Katmanı 2" width="20" height="15">
  <data encoding="csv">
0,0,0,0,0,0,0,0,0,0,0,0,0,0,0,0,0,0,0,0,
0,0,0,0,0,0,0,0,0,0,0,0,0,0,0,0,0,0,0,0,
629,0,0,489,490,0,0,489,490,0,0,489,490,0,0,489,490,0,20,625,
629,0,0,537,538,0,0,537,538,0,0,537,538,0,0,537,538,0,0,625,
629,0,0,0,0,0,0,0,0,0,0,0,0,0,0,0,0,0,0,625,
629,0,0,489,490,0,0,489,490,0,0,489,490,0,0,489,490,0,0,625,
629,533,0,537,538,0,0,537,538,0,0,537,538,0,0,537,538,0,533,625,
629,0,0,0,0,0,0,0,0,0,0,0,0,0,0,0,0,0,0,0,
629,0,0,0,0,0,0,0,0,0,0,0,0,0,0,0,0,0,0,0,
629,533,0,489,490,0,0,489,490,0,0,489,490,0,0,489,490,0,533,625,
629,0,0,537,538,0,0,537,538,0,0,537,538,0,0,537,538,0,0,625,
629,0,0,0,0,0,0,0,0,0,0,0,0,0,0,0,0,0,0,625,
629,0,0,0,0,0,0,0,0,0,0,0,345,249,345,0,0,0,0,625,
629,0,0,0,0,0,0,0,0,0,0,0,345,297,345,0,0,0,0,625,
580,531,531,531,531,531,531,531,531,531,531,531,531,531,531,531,531,531,531,578
</data>
 </layer>
</map>
