<?xml version="1.0" encoding="UTF-8"?>
<map version="1.10" tiledversion="1.12.1" orientation="orthogonal" renderorder="right-down" width="20" height="15" tilewidth="16" tileheight="16" infinite="0" nextlayerid="4" nextobjectid="1">
 <tileset firstgid="1" source="interior_tiles.tsx"/>
 <layer id="1" name="Desen Katmanı 1" width="20" height="15">
  <data encoding="csv">
7,7,7,7,7,7,7,7,7,289,289,7,7,7,7,7,7,7,7,7,
55,55,55,55,55,55,55,55,55,289,289,55,55,55,55,55,55,55,55,55,
289,289,289,289,289,289,289,289,289,290,289,289,289,290,289,289,289,290,289,289,
289,289,289,289,289,289,290,289,289,289,289,289,289,289,289,290,289,290,289,289,
289,289,289,289,289,290,289,289,290,289,290,289,289,289,289,289,289,289,289,289,
289,289,289,290,289,289,289,289,289,289,290,289,289,289,289,290,289,289,289,289,
289,289,289,289,289,289,289,290,289,289,289,289,289,289,289,289,289,289,290,289,
289,290,289,289,289,289,66,66,66,66,66,66,66,66,66,66,66,289,289,289,
289,289,289,290,289,289,289,289,289,290,289,289,289,289,289,289,289,289,289,289,
289,289,289,289,289,290,289,289,289,289,289,290,289,290,289,289,290,289,289,289,
290,289,289,289,289,289,289,289,289,289,289,289,289,289,289,289,289,289,289,290,
289,289,289,289,290,289,289,289,289,289,290,289,289,289,289,290,289,289,289,289,
289,289,289,289,290,289,290,289,289,289,289,289,289,289,289,289,289,289,289,289,
289,290,289,289,289,290,289,289,289,289,289,290,290,289,289,289,289,290,289,289,
289,289,289,289,290,289,289,289,289,289,289,289,289,289,289,289,289,289,290,289
</data>
 </layer>
 <layer id="2" name="Desen Katmanı 2" width="20" height="15">
  <data encoding="csv">
0,0,0,0,0,0,0,0,196,218,218,194,15,16,0,0,0,0,0,0,
0,0,0,0,0,552,0,0,244,0,0,242,63,64,0,0,0,0,0,0,
629,0,0,0,0,600,68,0,0,0,0,0,0,0,0,0,0,0,0,625,
629,0,0,0,0,0,0,0,0,0,0,0,0,0,0,0,451,0,0,625,
629,0,0,0,0,0,0,0,0,0,0,0,0,0,0,0,0,449,0,625,
629,256,0,0,0,0,0,0,0,0,0,0,0,0,0,0,0,497,0,625,
629,0,0,305,306,306,306,306,306,306,306,306,306,306,306,306,306,307,0,625,
0,0,0,353,354,354,354,354,354,354,354,354,354,354,354,354,354,355,0,625,
0,0,0,353,354,354,354,354,354,354,354,354,354,354,354,354,354,355,0,625,
629,0,0,353,354,354,354,354,354,354,354,354,354,354,354,354,354,355,0,625,
629,0,0,401,402,402,402,402,402,402,402,402,402,402,402,402,402,403,0,625,
629,0,0,0,0,0,0,0,0,0,0,0,0,0,0,0,0,0,0,625,
629,0,0,0,0,0,0,0,0,0,0,0,0,0,0,0,0,0,0,625,
629,0,0,0,0,0,0,0,0,0,0,0,0,0,256,0,0,0,0,625,
580,531,531,531,531,531,531,531,531,170,170,531,531,531,531,531,531,531,531,578
</data>
 </layer>
 <layer id="3" name="Desen Katmanı 3" width="20" height="15">
  <data encoding="csv">
0,0,0,0,0,0,0,0,0,0,0,0,107,108,0,0,0,653,0,0,
0,0,0,0,0,0,0,0,0,0,0,0,155,156,0,0,0,701,0,0,
0,0,0,0,0,0,0,0,0,0,0,0,0,0,0,0,0,0,0,0,
0,0,738,0,0,0,0,0,0,0,0,0,0,0,0,0,0,0,0,0,
0,0,0,0,0,0,0,0,0,0,0,0,0,0,0,0,0,0,0,0,
0,0,0,0,0,0,0,0,0,0,0,0,0,0,0,0,0,0,0,0,
0,0,0,0,0,0,0,0,0,0,0,0,0,0,0,0,0,0,0,0,
0,0,0,0,0,0,0,0,0,0,0,0,0,0,0,0,0,0,0,0,
0,0,0,0,0,0,0,0,533,0,0,0,0,0,0,0,0,0,0,0,
0,0,0,0,0,0,0,0,0,0,0,0,0,0,0,0,0,0,0,0,
0,0,0,0,0,0,0,0,0,0,0,0,0,0,0,0,0,0,0,0,
0,0,0,0,0,0,0,0,0,0,0,0,0,0,0,0,0,0,345,0,
0,0,0,0,0,0,0,0,0,0,0,0,0,0,0,0,535,0,0,0,
0,345,0,0,0,0,0,0,0,0,0,0,0,0,0,0,583,0,738,0,
0,0,0,0,0,0,0,0,0,0,0,0,0,0,0,0,0,0,0,0
</data>
 </layer>
</map>
