<?xml version="1.0" encoding="UTF-8"?>
<map version="1.10" tiledversion="1.12.1" orientation="orthogonal" renderorder="right-down" width="20" height="15" tilewidth="16" tileheight="16" infinite="0" nextlayerid="3" nextobjectid="1">
 <tileset firstgid="1" source="interior_tiles.tsx"/>
 <layer id="1" name="Desen Katmanı 1" width="20" height="15">
  <data encoding="csv">
97,97,97,97,97,97,97,97,97,218,218,97,97,97,97,97,97,97,97,97,
145,145,145,145,145,145,145,145,145,289,289,145,145,145,145,145,145,145,145,145,
289,289,289,289,289,289,289,289,289,290,289,289,289,290,289,289,289,290,289,289,
289,289,289,289,289,289,290,289,289,289,289,289,289,289,289,290,289,290,289,289,
289,289,289,289,289,290,289,289,290,289,290,289,289,289,289,289,289,289,289,289,
289,289,289,290,289,289,289,289,289,289,290,289,289,289,289,290,289,289,289,289,
289,289,289,289,289,289,289,289,289,289,289,289,289,289,289,289,289,289,290,289,
289,290,289,289,289,289,289,289,289,289,289,289,289,289,289,289,289,289,289,289,
289,289,289,290,289,289,289,289,289,290,289,289,289,289,289,289,289,289,289,289,
289,289,289,289,289,290,289,289,289,289,289,290,289,290,289,289,290,289,289,289,
290,289,289,289,289,289,289,289,289,289,289,289,289,289,289,289,289,289,289,290,
289,289,289,289,290,289,289,289,289,289,290,289,289,289,289,290,289,289,289,289,
289,289,289,289,290,289,290,289,289,289,289,289,289,289,289,289,289,289,289,289,
289,290,289,289,289,290,289,289,289,289,289,290,290,289,289,289,289,290,289,289,
289,289,289,289,290,289,289,289,289,289,289,289,289,289,289,289,289,289,290,289
</data>
 </layer>
 <layer id="2" name="Desen Katmanı 2" width="20" height="15">
  <data encoding="csv">
0,0,0,0,0,0,0,0,196,0,0,194,0,0,0,0,0,0,0,0,
0,0,552,0,0,0,0,0,244,0,0,242,22,23,0,0,0,356,357,0,
629,0,600,0,0,0,0,0,0,0,0,0,70,71,645,646,0,404,405,625,
629,0,0,0,0,644,0,0,0,0,0,0,0,0,0,0,0,0,0,625,
629,0,0,0,345,0,0,0,0,0,0,0,0,0,0,0,0,535,0,625,
629,0,533,0,0,0,0,0,0,0,0,0,0,0,0,0,0,583,0,625,
629,0,0,0,0,0,0,0,17,18,18,19,0,0,0,0,0,0,0,625,
0,0,0,0,0,0,0,0,65,66,66,67,0,0,0,0,0,0,0,0,
0,0,0,0,0,0,0,0,65,66,66,67,0,0,0,0,0,0,0,0,
629,0,0,0,0,0,0,0,113,114,114,115,0,0,0,0,0,0,0,625,
629,0,0,0,0,0,0,0,0,0,0,0,0,0,0,0,0,533,0,625,
629,0,0,0,0,0,0,0,0,0,0,0,0,0,0,0,0,0,0,625,
629,0,0,0,0,0,0,0,0,0,0,0,0,0,0,0,0,0,0,625,
629,0,0,0,533,0,0,0,0,0,0,0,0,0,0,0,0,644,0,625,
580,531,531,531,531,531,531,531,531,0,0,531,531,531,531,531,531,531,531,578
</data>
 </layer>
</map>
